assets/ai/ai-ror-square.svg

<svg xmlns="http://www.w3.org/2000/svg" width="100%" height="100%" viewBox="-75.52 -43.52 599.04 599.04"><path d="M 48 32 C 21.5 32 0 53.5 0 80 L 0 432 C 0 458.5 21.5 480 48 480 L 400 480 C 426.5 480 448 458.5 448 432 L 448 80 C 448 53.5 426.5 32 400 32 L 48 32 z M 94.828125 96 L 176.49219 96 L 135.67773 158.51367 L 94.828125 96 z M 271.50781 96 L 353.17188 96 L 312.35547 158.51367 L 271.50781 96 z M 153.30664 170.13281 L 219.80859 170.13281 C 228.55233 170.13281 236.84068 170.97955 244.70703 172.67383 C 252.54311 174.36813 259.44203 177.21428 265.3418 181.17773 C 271.2718 185.14117 275.96207 190.49622 279.44141 197.21289 C 282.92077 203.92954 284.67383 212.30879 284.67383 222.35352 C 284.67383 234.48583 281.5284 244.80298 275.20508 253.30469 C 268.91199 261.80641 259.68597 267.19181 247.46289 269.46094 L 291.17969 342.07227 L 245.76562 342.07227 L 209.82227 273.33203 L 191.125 273.33203 L 191.125 342.04492 L 153.24609 342.04492 L 153.30664 170.13281 z M 191.21875 202.17578 L 191.21875 241.29297 L 213.54492 241.29297 C 216.9335 241.29297 220.53551 241.17175 224.34766 240.92969 C 228.15982 240.68765 231.57804 239.96217 234.66406 238.75195 C 237.75011 237.54175 240.29127 235.63516 242.31836 233.0332 C 244.34546 230.43127 245.34275 226.80183 245.37305 222.08203 C 245.37305 217.72529 244.49599 214.2465 242.71094 211.64453 C 240.92587 209.0426 238.65949 207.07533 235.90625 205.68359 C 233.15302 204.32211 230.00174 203.38251 226.43164 202.89844 C 222.86152 202.41435 219.38271 202.17578 215.99414 202.17578 L 191.21875 202.17578 z M 135.67773 353.49609 L 176.49219 416 L 94.828125 416 L 135.67773 353.49609 z M 312.35547 353.49609 L 353.17188 416 L 271.50781 416 L 312.35547 353.49609 z"/></svg>

<svg xmlns="http://www.w3.org/2000/svg" width="100%" height="100%" viewBox="-75.52 -43.52 599.04 599.04"><path d="M48 32C21.5 32 0 53.5 0 80v352c0 26.5 21.5 48 48 48h352c26.5 0 48-21.5 48-48V80c0-26.5-21.5-48-48-48H48zm46.828 64h81.664l-40.814 62.514L94.828 96zm176.68 0h81.664l-40.817 62.514L271.508 96zm-118.201 74.133h66.502c8.743 0 17.032.847 24.898 2.54 7.836 1.695 14.735 4.541 20.635 8.505 5.93 3.963 10.62 9.318 14.1 16.035 3.479 6.717 5.232 15.096 5.232 25.14 0 12.133-3.146 22.45-9.469 30.952-6.293 8.501-15.519 13.887-27.742 16.156l43.717 72.611h-45.414l-35.944-68.74h-18.697v68.713h-37.879l.06-171.912zm37.912 32.043v39.117h22.326c3.389 0 6.99-.121 10.803-.363 3.812-.242 7.23-.968 10.316-2.178 3.086-1.21 5.627-3.117 7.654-5.719 2.027-2.602 3.025-6.231 3.055-10.951 0-4.357-.877-7.835-2.662-10.437-1.785-2.602-4.052-4.57-6.805-5.961-2.753-1.362-5.904-2.301-9.474-2.786a77.639 77.639 0 00-10.438-.722H191.22zm-55.541 151.32L176.492 416H94.828l40.85-62.504zm176.677 0L353.172 416h-81.664l40.847-62.504z"/></svg>
